X:1
T:On That Great Day of Judgment
T:On That Great Day of Judgment
T:Daniel Brink Towner
T:Anna Printzlau Bowen, 1918
T:Public Domain Courtesy of the Cyber Hymnal™
T:Public Domain Courtesy of the Cyber Hymnal™
C:Daniel Brink Towner
Z:Public Domain
Z:Courtesy of the Cyber Hymnal™
%%score ( 1 2 ) ( 3 4 )
L:1/8
Q:1/4=105
M:4/4
K:Ab
V:1 treble 
V:2 treble 
V:3 bass 
V:4 bass 
V:1
 EE | [EA]2 [EA][EA] [EA] [EA]2 E | [DF]2 [DF]2 [CE]3 [CE] | [DG]>[DG] [DG][DG] [DG] [DG]2 [DF] | %4
w: 1.~On that|great day of judg- ment, what|will you say? When|all the books are o- pened, and|
w: 2.~On that|great day of judg- ment, what|will you do? If|Je- sus tells the Fa- ther that|
w: 3.~On that|great day of judg- ment, no|fear I’ll know; By|grace I was de- liv- ered on|
 [DE]>[DE] [DF][DE] [CA]3 [CA] | [Ec]>[Ec] [Ec][Ec] [DB][DB][DB][DB] | %6
w: none can hide a- way; When|ev- ery hid- den se- cret by the|
w: you He ne- ver knew; And|you’re re- fused a fleet- ing glimpse of|
w: Cal- v’ry long a- go; O|hast- en while there yet is time God’s|
 [CA]>[CA] [FA][FA] [=EG]3 [EG] | F>[FG] [FA][DF] [CE][EA][EA][FB] | [Ec]>[Ec] [DB][DB] [CA]4 || %9
w: Judge will be made known, And|you be- hold the har- vest of the|seed you here have sown.|
w: heav’n- ly joy to see, But|with the lost are doomed to spend a|long e- ter- ni- ty.|
w: prom- ise to prove true, For|He has said that His shed blood doth|still a- vail for you.|
"^Refrain" F>F FG A A2 F | A2 GF C C2 [CA] | [EB]2 [EB][EB] [F=d]2 [AB]2 | [Ge]6 [Ge]>[Ge] | %13
w: ||||
w: “Ren- der un- to Cæ- sar the|things that are Cæ- sar’s,” But|give un- to God His|own; For the|
w: ||||
 [Ae]2 [Ae][Ad] [Ec] [Ec]2 [=EB] | [FA]2 [FA]2 !fermata!EE[DF][DG] | [CA][DG] [EA]3 [FB][Ec][Ed] | %16
w: |||
w: great day of judg- ment is|com- ing soon, When ev- ery|knee shall bow be- fore the|
w: |||
 [Ec]2 [DB]2 [CA]2 |] %17
w: |
w: great white throne.|
w: |
V:2
 EE | x7 E | x8 | x8 | x8 | x8 | x8 | F3/2 x13/2 | x8 || F>F FG A A2 F | A2 GF C C2 x | x8 | x8 | %13
 x8 | x4 EE x2 | x8 | x6 |] %17
V:3
 E,E, | [A,C]2 [A,C][A,C] [A,C] [A,C]2 [C,A,] | [D,A,]2 [D,A,]2 [A,,A,]3 [A,,A,] | %3
 [E,B,]>[E,B,] [E,B,][E,B,] [E,B,] [E,B,]2 [E,A,] | [E,G,]>[E,G,] [E,A,][E,B,] [A,,A,]3 A, | %5
 A,>A, A,A, [E,G,][E,G,][E,G,][E,G,] | [F,A,]>[F,A,] [F,C][F,C] [C,C]3 [C,B,] | %7
 [D,A,]>[D,A,] [D,A,][D,A,] [A,,A,][C,A,][C,A,][D,A,] | [E,A,]>[E,A,] [E,G,]E, [A,,E,]4 || %9
 F,>F, F,G, A, A,2 F, | A,2 G,F, [C,=E,G,] [C,E,G,]2 F, | [E,G,]2 [F,A,][G,B,] [A,B,]2 [F,A,]2 | %12
 [E,B,]6 [E,D]>[E,D] | [A,C]2 [A,C][A,B,] A, A,2 [C,C] | %14
 [D,A,]2 [D,A,]2 !fermata![C,A,][C,A,][C,G,][B,,E,] | [A,,E,][B,,E,] [C,A,]3 [D,A,][E,A,][E,B,] | %16
 [E,A,]2 (G,E,) [A,,E,]2 |] %17
V:4
 E,E, | x8 | x8 | x8 | x7 A, | A,>A, A,A, x4 | x8 | x8 | x3 E, x4 || F,>F, F,G, A, A,2 F, | %10
 A,2 G,F, x2 F, x | x8 | x8 | x4 A, A,2 x | x8 | x8 | x2 E,2 x2 |] %17

